X:1
T:Coming Home Tonight
T:Coming Home Tonight
T:Peter Philip Bilhorn
T:James Rowe, 1910
T:Public Domain Courtesy of the Cyber Hymnal™
T:Public Domain Courtesy of the Cyber Hymnal™
C:Peter Philip Bilhorn
Z:Public Domain
Z:Courtesy of the Cyber Hymnal™
%%score ( 1 2 ) ( 3 4 )
L:1/8
Q:1/4=125
M:4/4
K:G
V:1 treble 
V:2 treble 
V:3 bass 
V:4 bass 
V:1
 D2 | D2 [GB]2 [FB]2 [EB]2 | [DB]4 [GB]2 [DB]2 | [GB]2 [FB]2 [EB]2 [DB]2 | [Fc]6 D2 | %5
w: 1.~If|you are sad and|wea- ry and|bur- dened down with|care, And|
w: 2.~The|Sav- ior loves you|dear- ly, and|longs your soul to|win, His|
w: 3.~He|of- fers you for-|give- ness, and|peace, and joy, and|rest, He|
 D2 [Dc]2 [Gc]2 [Fc]2 | [Ec]2 [Fc]2 [Bd]3 [FA] | [GB]6 D2 | D2 [Gd]2 [Fd]2 [=Fd]2 | %9
w: feel that you have|wan- dered from the|right; Tho’|all your life seems|
w: pre- cious love would|make your bur- den|light; Heed|now His ten- der|
w: wants to make your|path- way fair and|bright; His|lov- ing arms are|
 [Ed]4 [Ec]2 [EB]2 | [EA]2 [EA]2 [EA]2 [EB]2 | [Ec]6 D2 | D [Dc]3 [Gc]2 [Fc]2 | %13
w: drea- ry, Your|load seems hard to|bear, Just|tell Him you are|
w: plead- ing, And|turn a- way from|sin, Just|tell Him you are|
w: o- pen To|fold you to His|breast, Oh,|tell Him you are|
 [Fc] [Fc]3 [FB]3 [FA] | [DG]6 ||"^Refrain" D2 | D [GB]3 [FB]2 [EB]2 | [GB] [GB]3 [FA]3 [GB] | %18
w: com- ing home to-|night.||||
w: com- ing home to-|night.|Just|tell Him you are|com- ing home to-|
w: com- ing home to-|night.||||
 [Fc]6 D2 | D [Fc]3 [Fc]2 [Fc]2 | [Fc] [Fc]3 [GB]3 [Ac] | [Bd]6 D2 | D [Gd]3 [Fd]2 [=Fd]2 | %23
w: |||||
w: night, Just|tell Him you are|com- ing home to-|night; If,|wea- ry and dis-|
w: |||||
 (d4 c2) [EB]2 | [EA]2 [EA]2 [EA]2 [EB]2 | [Ec]6 !fermata![Ge]2 | .[Gd] .[Gd]3 [Gd]2 [Gd]2 | %27
w: ||||
w: tressed, * You|long for peace and|rest, Just|tell Him you are|
w: ||||
 .[Fd] .[Fd]3 [Fc]3 [FA] | G6 |] %29
w: ||
w: com- ing home to-|night.|
w: ||
V:2
 D2 | D2 x6 | x8 | x8 | x6 D2 | D2 x6 | x8 | x6 D2 | D2 x6 | x8 | x8 | x6 D2 | D x7 | x8 | x6 || %15
 D2 | D x7 | x8 | x6 D2 | D x7 | x8 | x6 D2 | D x7 | E6 x2 | x8 | x8 | x8 | x8 | G6 |] %29
V:3
 [G,B,]2 | [G,B,]2 [G,D]2 [G,D]2 [G,D]2 | [G,B,]4 [G,D]2 G,2 | [G,D]2 [G,D]2 [G,D]2 [G,B,]2 | %4
 [A,D]6 [A,C]2 | [D,C]2 [D,A,]2 [D,E]2 [D,D]2 | [D,C]2 [D,A,]2 [D,G,D]3 [D,D] | [G,D]6 [G,B,]2 | %8
 [G,B,]2 [G,B,]2 [A,C]2 [B,D]2 | C4 [C,C]2 [C,C]2 | [C,C]2 [C,C]2 [C,A,]2 [B,,^G,]2 | %11
 [A,,A,]6 [D,F,]2 | [D,C] [D,A,]3 [D,E]2 [D,D]2 | [D,A,] [D,A,]3 [D,D]3 [D,C] | [G,B,]6 || %15
 [G,B,]2 | [G,B,] [G,D]3 [G,D]2 [G,D]2 | [G,D] [G,D]3 [CD]3 [B,D] | [A,C]6 [A,C]2 | %19
 [D,C] [D,A,]3 [D,F]2 [D,E]2 | [D,D] [D,A,]3 [D,D]3 [D,D] | [G,D]6 [G,B,]2 | %22
 [G,B,] [G,B,]3 [A,C]2 [B,D]2 | (C4 C,2) [C,C]2 | [C,C]2 [C,C]2 [C,A,]2 [B,,^G,]2 | %25
 [A,,A,]6 !fermata![^C,^A,]2 | [D,B,] [D,B,]3 [D,B,]2 [D,B,]2 | [D,A,] [D,E]3 [D,D]3 [D,C] | %28
 [G,,G,B,]6 |] %29
V:4
 x2 | x8 | x6 G,2 | x8 | x8 | x8 | x8 | x8 | x8 | C4 x4 | x8 | x8 | x8 | x8 | x6 || x2 | x8 | x8 | %18
 x8 | x8 | x8 | x8 | x8 | C4 x4 | x8 | x8 | x8 | x8 | x6 |] %29

